X:1
T:DOWN THE STREET
M:2/4
Q:1/4=120
K:F
F4A4|c6A2|B4B4|B4A2G2|F4A4|c6A2|G2E2F2D2|
C4c2A2|G2E2F2D2|C4c2A2|G2E2F2D2|C2C2D2E2|
F4A4|c6A2|B4B4|B4A2G2|F4A4|c6A2|G2E2F2D2|
C4c2A2|G2E2F2D2|C4c2A2|G2E2F2D2|C4c7/2||
